images/pagecache.svg

<svg height="45" viewBox="0 0 50 45" width="50" xmlns="http://www.w3.org/2000/svg"><g fill="#3875d0" fill-rule="evenodd"><path d="m1.53839286 14.2371 23.13214284 11.0781c.2053572.0981.4285714.1485.6508929.1485.2223214 0 .4455357-.0504.6508928-.1485l23.1348215-11.0781c.5294642-.2529.8669642-.7911.8669642-1.3815s-.3375-1.1286-.8669642-1.3815l-23.1339286-11.079c-.4116072-.198-.8910714-.198-1.3026786 0l-23.13214284 11.079c-.52946429.2529-.86696429.7911-.86696429 1.3815s.3375 1.1286.86696429 1.3815zm23.78303574-10.7667 19.5964285 9.3852-19.5964285 9.3843-19.59464289-9.3843z"/><path d="m49.8276786 21.5397c-.3607143-.7632-1.2669643-1.0881-2.0232143-.7254l-22.4830357 10.7658-22.48035717-10.7658c-.75892857-.3627-1.66160714-.0378-2.02321429.7254-.35892857.765-.03660714 1.6758.72053572 2.0394l23.13214284 11.0781c.2053572.0981.4285714.1476.6508929.1476.2223214 0 .4455357-.0495.6508928-.1476l23.1348215-11.079c.7571428-.3618 1.0794642-1.2744.7205357-2.0385z"/><path d="m49.8276786 30.8808c-.3607143-.765-1.2669643-1.0863-2.0232143-.7254l-22.4830357 10.7658-22.48035717-10.7658c-.75892857-.3609-1.66160714-.0396-2.02321429.7254-.35892857.7641-.03660714 1.6749.72053572 2.0394l23.13214284 11.0781c.2053572.0981.4285714.1476.6508929.1476.2223214 0 .4455357-.0495.6508928-.1476l23.1348215-11.079c.7571428-.3618 1.0794642-1.2753.7205357-2.0385z"/></g></svg>

<?xml version="1.0" encoding="UTF-8" standalone="no"?>
<svg width="50px" height="45px" viewBox="0 0 50 45" version="1.1" xmlns="http://www.w3.org/2000/svg" xmlns:xlink="http://www.w3.org/1999/xlink">
    <!-- Generator: Sketch 40.3 (33839) - http://www.bohemiancoding.com/sketch -->
    <title>1477522509_General_-_Office_22</title>
    <desc>Created with Sketch.</desc>
    <defs></defs>
    <g id="Welcome" stroke="none" stroke-width="1" fill="none" fill-rule="evenodd">
        <g id="Desktop-Copy-4" transform="translate(-231.000000, -809.000000)" fill="#3875D0">
            <g id="1477522509_General_-_Office_22" transform="translate(231.000000, 809.000000)">
                <g id="Layer_1">
                    <g id="Group">
                        <path d="M1.53839286,14.2371 L24.6705357,25.3152 C24.8758929,25.4133 25.0991071,25.4637 25.3214286,25.4637 C25.54375,25.4637 25.7669643,25.4133 25.9723214,25.3152 L49.1071429,14.2371 C49.6366071,13.9842 49.9741071,13.446 49.9741071,12.8556 C49.9741071,12.2652 49.6366071,11.727 49.1071429,11.4741 L25.9732143,0.3951 C25.5616071,0.1971 25.0821429,0.1971 24.6705357,0.3951 L1.53839286,11.4741 C1.00892857,11.727 0.671428571,12.2652 0.671428571,12.8556 C0.671428571,13.446 1.00892857,13.9842 1.53839286,14.2371 L1.53839286,14.2371 Z M25.3214286,3.4704 L44.9178571,12.8556 L25.3214286,22.2399 L5.72678571,12.8556 L25.3214286,3.4704 L25.3214286,3.4704 Z" id="Shape"></path>
                        <path d="M49.8276786,21.5397 C49.4669643,20.7765 48.5607143,20.4516 47.8044643,20.8143 L25.3214286,31.5801 L2.84107143,20.8143 C2.08214286,20.4516 1.17946429,20.7765 0.817857143,21.5397 C0.458928571,22.3047 0.78125,23.2155 1.53839286,23.5791 L24.6705357,34.6572 C24.8758929,34.7553 25.0991071,34.8048 25.3214286,34.8048 C25.54375,34.8048 25.7669643,34.7553 25.9723214,34.6572 L49.1071429,23.5782 C49.8642857,23.2164 50.1866071,22.3038 49.8276786,21.5397 L49.8276786,21.5397 Z" id="Shape"></path>
                        <path d="M49.8276786,30.8808 C49.4669643,30.1158 48.5607143,29.7945 47.8044643,30.1554 L25.3214286,40.9212 L2.84107143,30.1554 C2.08214286,29.7945 1.17946429,30.1158 0.817857143,30.8808 C0.458928571,31.6449 0.78125,32.5557 1.53839286,32.9202 L24.6705357,43.9983 C24.8758929,44.0964 25.0991071,44.1459 25.3214286,44.1459 C25.54375,44.1459 25.7669643,44.0964 25.9723214,43.9983 L49.1071429,32.9193 C49.8642857,32.5575 50.1866071,31.644 49.8276786,30.8808 L49.8276786,30.8808 Z" id="Shape"></path>
                    </g>
                </g>
            </g>
        </g>
    </g>
</svg>
